X: 113
T: The Rakes of Mallow
T: Piping Tim of Galway
M: 2/4
L: 1/16
K: G
%%stretchlast
G2B2 G2B2 | G2B2 cBAG | F2A2 F2A2 | F2A2 BAGF |
G2B2 G2B2 | G2B2 d2d2 | cBAG FGAB | G4  G4 :|
|: g2fe  d2c2 | B2c2 d4  | g2fe d2c2 | B2d2 A4 |
g2fe d2c2 | B2c2 d4 | cBAG FGAB | G4 G4 :|
 
